src/components/Icon/assets/arrow-hook-right-down.svg

<svg width="24" height="24" viewBox="0 0 24 24" fill="none" xmlns="http://www.w3.org/2000/svg">
<path fill-rule="evenodd" clip-rule="evenodd" d="M9.50046 3.02649H14.0005V5.02649H9.50046C7.01946 5.02649 5.00046 7.04549 5.00046 9.52649C5.00046 12.0075 7.01946 14.0265 9.50046 14.0265H18.8195L14.8205 10.0265L16.2345 8.61249L21.5615 13.9395C22.1465 14.5245 22.1465 15.4755 21.5615 16.0605L16.2345 21.3875L14.8205 19.9735L18.7675 16.0265H9.50046C5.91646 16.0265 3.00046 13.1105 3.00046 9.52649C3.00046 5.94249 5.91646 3.02649 9.50046 3.02649" fill="#65676A"/>
</svg>

<svg xmlns="http://www.w3.org/2000/svg" width="24" height="24" viewBox="0 0 24 24">
    <path fill="#65676A" fill-rule="evenodd" d="M9.5 3.026H14v2H9.5c-2.48 0-4.5 2.02-4.5 4.5 0 2.482 2.02 4.5 4.5 4.5h9.32l-4-4 1.414-1.413 5.327 5.327c.585.585.585 1.536 0 2.12l-5.327 5.328-1.414-1.415 3.947-3.947H9.5c-3.584 0-6.5-2.915-6.5-6.5 0-3.583 2.916-6.5 6.5-6.5"/>
</svg>
